X:1
T:Hommage a Doroth\'ee (Bm)
C:Phillipe Bruneau
D:Levy, Ostroushko, et al - First Generation
Z:transcribed by Moshe Braner, March 2001
N:for a deeper sound, play in Dm (9 half-notes lower)
M:3/4
L:1/8
K:Bm
P:A
|: "Bm"B2 Bc dB | "F#7"c2 f2 f2 | "Bm"B2 Bc dB | "F#7"c2 F2 F2 |
   "Bm"B2 Bc dB | "A7"c2 Ac eg  | "D"f6 |1 "F#7"fg fe dc :|2 f2 "B7"Bcd^d ||
P:B
|: "Em"e2 ef ge | "B7"f2 b2 b2  | "Em"e2 ef ge | "B7"f2 B2 B2 |
   "Em"e2 ef ge | "D7"f2 df a=c'| "G"b6 |1 "B7"b=c' ba gf :|2 b2 a2 g2 ||
P:C
"B7"f3 a a2-|a2 g2 f2 | "Em"e3 g g2-|g2 f2 e2 |
"F#7"c'6-|c'4 g2 | f6 | fg fe dc |
"Bm"B2 Bc dB | "F#7"c2 f2 f2 | "Bm"B2 Bc dB | "F#7"c2 F2 F2 |
"Bm"B2 Bc dB | "F#7"c2-cedc | "Bm"B2-BFdc | B6 ||
P:D
|: "Bm"b2d'2-d'b | f6 | "Em"e2g2-ge | "F#7"c6 |
   "F#7"F2^A2c2 | e2d2c2 |1 "Bm"B2-Bcde | f6 :|2 "Bm"B2-BFdc | B6 ||
